X:1
T:C Major Stephen Jenks, 1818
T:Isaac Watts, 1719 (Psalm 23)       66. 86. (S. M.)
T:Hampton
T:Transcribed from Jenks' The Harmony of Zion, 1818.
%%score [ 1 2 3 4 ]
L:1/8
Q:1/4=150
M:2/4
K:C
V:1 treble nm="Tr." snm="Tr."
V:2 treble nm="C." snm="C."
V:3 treble-8 nm="T." snm="T."
V:4 bass nm="B." snm="B."
V:1
 c2 | c2 B2 | A2 G2 | G2 z G | G2 c2 | B2 A2 | d2 z c | B2 c2 | B2 A2 | d2 c2 | B2 z c | G2 A2 | %12
w: 1.~The|Lord my|Shep- herd|is, I|shall be|well sup-|plied; Since|he is|mine and|I am|his, What|can I|
 G2 F2 | E4 | z2 E2 | G2 G2 | GF ED | E2 z G | c2 c2 | ed cB | c2 z G | cB AG | ed cB | cB A2 | %24
w: want be-|side?|If|e'er I|go * a- *|stray, He|doth my|soul * re- *|claim; And|guides * me *|in * his *|own * right|
 ^G2 z c | c2 A2 | G2 F2 | E4 |] %28
w: way, For|his most|ho- ly|name.|
V:2
 E2 | G2 G2 | F2 D2 | E2 z E | G2 E2 | F2 F2 | D2"^Where li–ving  wa–ters    gently" z2 | z4 | z4 | %9
w: 2.~He|leads me|to the|place Where|heav'n- ly|pas- ture|grows,|||
 z4 |"^pass," z2 z E | G2 F2 | E2 D2 | E4 | z2 E2 | E2 E2 | GA GF | E2 z E | G2 G2 | EF G2 | %20
w: |And|full sal-|va- tion|flows.|While|he af-|fords * his *|aid, I|can- not|yield * to|
 G2"^Though" z2 |"^I            should      walk      through   death's   dark      shade," z4 | %22
w: fear;||
 z4 | z4 | z2 z E | F2 A>G | G2 G2 | G4 |] %28
w: ||My|Shep- herd's *|with me|there.|
V:3
 G2 | E2 G2 | c2 B2 | c2 z c | d2 e2 | d2 c2 | B2 z e | d2 e2 | d2 c2 | B2 A2 | ^G2 z G | c2 d2 | %12
w: 3.~In|sight of|all my|foes, Thou|dost my|ta- ble|spread; My|cup with|bles- sings|o- ver-|flows, And|joy ex-|
 c2 B2 | c4 | z2 G2 | c2 c2 | ed cB | c2 z c | e2 e2 | gf ed | e2 z c | ed cB | cB AG | AG FE | %24
w: alts my|head.|The|boun- ties|of * thy *|love Shall|crown my|fol- * lowing *|days; Nor|from * thy *|house * will *|I * re- *|
 ED z G | A2 f>e | e2 d>c | c4 |] %28
w: move, * Nor|cease to *|speak thy *|praise.|
V:4
 C,2 | C,2 E,2 | F,2 G,2 | C,2 z C, | B,,2 C,2 | D,2 D,2 | G,,2 z2 | z4 | z4 | z4 | z2 z C, | %11
 E,2 F,2 | G,2 G,,2 | C,4 | z2 C,2 | C,2 E,2 | E,F, G,2 | C,2 z C, | C2 C2 | CB, CG, | C2 z2 | z4 | %22
 z4 | z4 | z2 z C, | F,2 F,2 | G,2 G,,2 | C,4 |] %28

